X:1084
T:Maggie Watson's Farewell To Blackhamm
C:Joe Buchanan's Scottish Tome - Page 470.0
I:470 0
R:Folk
Z:Carl Allison
L:1/8
M:2/4
K:D
B | Ad f/>e/f/>g/  | af (f/>e/)d  | Ac e/>f/g/>e/  | df (f/>g/)a  |
Ad f/>e/f/>g/  | af (f/>e/)d  | Ac e/>f/g/>e/ | dd d :|
B | Ad f/>e/d/>B/  | AF F/>G/A | GE E/>F/G/>B/ | AF (F/>E/)D  |
Ad f/>e/d/>B/  | AF (F/>G/)A  | GE c/>A/B/>c/  | dd d :|
B | Ad f/>e/f/>g/  | af (f/>e/)d  | Ac e/>f/g/>e/  | df (f/>g/)a  |
Ad f/>e/f/>g/  | af (f/>e/)d  | Ac e/>f/g/>e/  | dd d z |]
[K:G]
(B2> c2) | (d2> c2) | Bd g>a | (gf) f2 |
(A2> B2) | (c2> d2) | f>e dc | (d/c/)B  B2 |
(B2> c2) | (d2> c2) | Bd g>b | (ba) a2 |
(a2> g2) | (f2> e2) | da e>f | (ag) g> z :|
[K:D] B | Ad f/>e/f/>g/  | af (f/>e/)d  | Ac e/>f/g/>e/  | df (f/>g/)a  |
Ad f/>e/f/>g/  | af (f/>e/)d  | Ac e/>f/g/>e/  | df d |]
